Dominus_Dark_Funeral/scalable/actions/system-run.svg

<svg xmlns="http://www.w3.org/2000/svg" width="24" height="24"><path d="M14.27 1.22l-.25 1.7a7.17 7.17 0 0 0-.27-.13L10.79.36h-.97l.7 1.77-.48.03-3.27-.62-.85.46 1.33 1.1a6.97 6.97 0 0 0-.51.34L3.58 4.53l-.52.82 1.7.3a6.86 6.86 0 0 0-.36.71L2.28 8.91l-.02.97 1.61-.63.05.67-.55 3.3.47.84L4.9 12.7a7 7 0 0 0 .36.52l.18 1.19h9.88l2.79-1.05.49-.83-1.7-.25.23-.5 2.15-2.53.03-.97-1.62.61c0-.18 0-.36-.02-.53l.65-3.27-.45-.85-1.11 1.32a6.87 6.87 0 0 0-.49-.72L15.1 1.7zm-3.48 8.8a.96.96 0 1 1 0-1.94.96.96 0 0 1 0 1.93zM.74 23.48H20.7v-8.16H.74zM22.34 9.4l-1.27-.6-1.57 2.83zm-2.52 3.67l3.61.19-.56-1.29z" fill="#e6e6e6"/></svg>

<?xml version="1.0" encoding="UTF-8" standalone="no"?>
<svg
   xmlns:dc="http://purl.org/dc/elements/1.1/"
   xmlns:cc="http://creativecommons.org/ns#"
   xmlns:rdf="http://www.w3.org/1999/02/22-rdf-syntax-ns#"
   xmlns:svg="http://www.w3.org/2000/svg"
   xmlns="http://www.w3.org/2000/svg"
   xmlns:sodipodi="http://sodipodi.sourceforge.net/DTD/sodipodi-0.dtd"
   xmlns:inkscape="http://www.inkscape.org/namespaces/inkscape"
   width="24"
   height="24"
   version="1.1"
   id="svg4"
   sodipodi:docname="system-run.svg"
   inkscape:version="0.92.4 (5da689c313, 2019-01-14)">
  <metadata
     id="metadata10">
    <rdf:RDF>
      <cc:Work
         rdf:about="">
        <dc:format>image/svg+xml</dc:format>
        <dc:type
           rdf:resource="http://purl.org/dc/dcmitype/StillImage" />
        <dc:title></dc:title>
      </cc:Work>
    </rdf:RDF>
  </metadata>
  <defs
     id="defs8" />
  <sodipodi:namedview
     pagecolor="#ffffff"
     bordercolor="#666666"
     borderopacity="1"
     objecttolerance="10"
     gridtolerance="10"
     guidetolerance="10"
     inkscape:pageopacity="0"
     inkscape:pageshadow="2"
     inkscape:window-width="1112"
     inkscape:window-height="480"
     id="namedview6"
     showgrid="false"
     inkscape:zoom="9.8333333"
     inkscape:cx="1.0677966"
     inkscape:cy="12"
     inkscape:window-x="0"
     inkscape:window-y="25"
     inkscape:window-maximized="0"
     inkscape:current-layer="svg4" />
  <path
     d="m 14.27,1.22 -0.25,1.7 A 7.17,7.17 0 0 0 13.75,2.79 L 10.79,0.36 H 9.82 L 10.52,2.13 10.04,2.16 6.77,1.54 5.92,2 7.25,3.1 A 6.97,6.97 0 0 0 6.74,3.44 L 3.58,4.53 3.06,5.35 4.76,5.65 A 6.86,6.86 0 0 0 4.4,6.36 L 2.28,8.91 2.26,9.88 3.87,9.25 3.92,9.92 3.37,13.22 3.84,14.06 4.9,12.7 a 7,7 0 0 0 0.36,0.52 l 0.18,1.19 h 9.88 l 2.79,-1.05 0.49,-0.83 -1.7,-0.25 0.23,-0.5 2.15,-2.53 0.03,-0.97 -1.62,0.61 c 0,-0.18 0,-0.36 -0.02,-0.53 L 18.32,5.09 17.87,4.24 16.76,5.56 A 6.87,6.87 0 0 0 16.27,4.84 L 15.1,1.7 Z m -3.48,8.8 a 0.97,0.97 0 1 1 0,-1.94 0.965,0.965 0 0 1 0,1.93 z M 0.74,23.48 H 20.7 V 15.32 H 0.74 Z M 22.34,9.4 21.07,8.8 19.5,11.63 Z m -2.52,3.67 3.61,0.19 -0.56,-1.29 z"
     id="path2"
     inkscape:connector-curvature="0"
     style="fill:#e6e6e6" />
</svg>
